X:183
T:Epping Forrest. THO5.183
M:6/8
L:1/8
B:Thompson's Complete Collection of 200 Favourite Dances Vol.5
F:https://www.libraryofdance.org/manuals/1780c-Thompson-Compleat-5.pdf
Z:vmp. Peter Dunk 2024
Q:3/8=110
K:F
f2f faf|gec c3|d2d def|cAF F3|
G2G GAB|cAF FEF|GBA GFE|F3 F3:|
|:[A2A,2]c TcBc|[B2B,2]d d3|[G2G,2]B TBAB|[A2A,2]c c3|
F2A AGA|B2G GAB|cBA GFE|F3 F3:|
|:(b2g) (e2c)|(f2a) c3|(d2B) (G2E)|(F2A) [c3C3]|
(b2g) (e2c)|(f2a) c3|(d2B) (G2E)|F3F3:|
W:
W:Right hands across, Left hands back again ./.
W:Change sides & back again ./:
W:Cross over 2 Couples :/.
W:the Lady sets to the 2nd Gent & the Gent to the 2nd Lady:/:
W:Set 3 & 3 sideways, cross over & back to back ./:.
W:Lead through the bottom Couple & Allemand :./:

